X:1
T:The Sacred Heart, 10.10.10.10
T:The Sacred Heart, 10.10.10.10
T:John Arthur St. Oswald Dykes, 1906
T:Public Domain Courtesy of the Cyber Hymnal™
C:John Arthur St. Oswald Dykes, 1906
Z:Public Domain
Z:Courtesy of the Cyber Hymnal™
%%score ( 1 2 ) ( 3 4 )
L:1/8
Q:1/4=115
M:none
K:Eb
V:1 treble 
V:2 treble 
V:3 bass 
V:4 bass 
V:1
 [EG]4 [B,G]2 [CG]2 [DF]6 [=EG]2 | [FA]2 (FG) [FA]2 [DB]2 [EG]6 | %2
 [EB]2 B4 B4 [CB]2 [C_E]2 [CF]2 [=EG]2 | A4 (B2 G2) [DF]8 | [DB]4 [DB]2 [=Ec]2 [Fd]6 =A2 | %5
 [F=A]2 [Fd]2 [Ec]2 [D=B]2 [Ec]8 | [Ec]4 [DG]2 [DG]2 [DF]2 [CE]2 [CF]2 [=EG]2 | [FA]4 [DF]4 E8 |] %8
V:2
 x16 | x2 C2 x10 | x2 (G2 F2) (=E2 D2) x8 | F6 (B,C) x8 | x14 (D=E) | x16 | x16 | x8 E8 |] %8
V:3
 [E,B,]4 [E,G,]2 [E,G,]2 [B,,B,]6 [G,B,]2 | [F,C]2 (A,B,) [F,C]2 [B,,B,]2 [E,B,]6 | %2
 [E,G,]2 (B,2 A,2) (G,2 F,2) [A,,E,]2 [A,,A,]2 [A,C]2 [G,B,]2 | [F,C]4 B,4 [B,,B,]8 | %4
 [G,B,]4 [G,B,]2 [G,B,]2 [D,=A,]6 (F,G,) | [D,=A,]2 [D,A,]2 G,2 [G,,G,]2 [C,G,]8 | %6
 [A,,A,]4 [B,,F,]2 [B,,G,]2 [C,A,]2 [C,G,]2 A,2 [G,B,]2 | [F,C]4 (B,2 A,2) [E,G,]8 |] %8
V:4
 x16 | x2 F,2 x10 | x2 E,4 G,,4 x8 | x4 (D,2 E,2) x8 | x14 D,2 | x4 G,2 x10 | x12 A,2 x2 | %7
 x4 B,,4 x8 |] %8

